{
  "type": "map",
  "version": "1.10",
  "tiledversion": "1.12.2",
  "orientation": "orthogonal",
  "renderorder": "right-down",
  "infinite": false,
  "width": 24,
  "height": 16,
  "tilewidth": 32,
  "tileheight": 32,
  "nextlayerid": 6,
  "nextobjectid": 34,
  "backgroundcolor": "#142630",
  "compressionlevel": -1,
  "layers": [
    {
      "id": 1,
      "name": "Suelo",
      "type": "tilelayer",
      "x": 0,
      "y": 0,
      "width": 24,
      "height": 16,
      "opacity": 1,
      "visible": true,
      "data": [
        9,
        10,
        11,
        12,
        9,
        10,
        11,
        12,
        9,
        10,
        11,
        12,
        9,
        10,
        11,
        12,
        9,
        10,
        11,
        12,
        9,
        10,
        11,
        12,
        10,
        11,
        12,
        9,
        10,
        11,
        12,
        9,
        10,
        11,
        12,
        9,
        10,
        11,
        12,
        9,
        10,
        11,
        12,
        9,
        10,
        11,
        12,
        9,
        11,
        4,
        7,
        1,
        5,
        2,
        1,
        7,
        5,
        5,
        1,
        8,
        7,
        7,
        7,
        8,
        2,
        3,
        3,
        3,
        5,
        3,
        5,
        10,
        12,
        2,
        1,
        1,
        3,
        2,
        3,
        5,
        8,
        7,
        16,
        8,
        8,
        16,
        2,
        8,
        6,
        7,
        6,
        6,
        7,
        6,
        5,
        11,
        9,
        2,
        7,
        3,
        5,
        2,
        5,
        1,
        6,
        7,
        16,
        7,
        8,
        16,
        8,
        5,
        6,
        4,
        8,
        4,
        5,
        8,
        1,
        12,
        10,
        8,
        7,
        8,
        7,
        1,
        2,
        1,
        8,
        4,
        16,
        6,
        6,
        16,
        7,
        7,
        3,
        5,
        3,
        5,
        4,
        7,
        4,
        9,
        11,
        8,
        6,
        6,
        5,
        3,
        6,
        5,
        2,
        3,
        16,
        7,
        7,
        16,
        4,
        8,
        1,
        6,
        1,
        6,
        7,
        4,
        2,
        10,
        12,
        4,
        4,
        5,
        4,
        4,
        3,
        8,
        7,
        14,
        14,
        14,
        14,
        14,
        14,
        7,
        2,
        3,
        4,
        4,
        1,
        7,
        8,
        11,
        9,
        2,
        4,
        3,
        4,
        3,
        1,
        5,
        5,
        4,
        16,
        8,
        2,
        16,
        6,
        7,
        1,
        1,
        3,
        2,
        1,
        6,
        7,
        12,
        10,
        6,
        4,
        5,
        8,
        2,
        8,
        7,
        3,
        2,
        16,
        2,
        2,
        16,
        7,
        3,
        2,
        6,
        5,
        2,
        5,
        2,
        4,
        9,
        11,
        5,
        6,
        5,
        1,
        3,
        7,
        7,
        6,
        6,
        16,
        1,
        6,
        16,
        4,
        1,
        4,
        8,
        7,
        7,
        7,
        7,
        6,
        10,
        12,
        6,
        6,
        6,
        5,
        6,
        2,
        2,
        8,
        3,
        16,
        4,
        1,
        16,
        6,
        7,
        4,
        8,
        3,
        5,
        6,
        8,
        6,
        11,
        9,
        5,
        6,
        2,
        4,
        4,
        3,
        2,
        2,
        8,
        16,
        6,
        7,
        16,
        7,
        4,
        6,
        4,
        7,
        1,
        2,
        5,
        7,
        12,
        10,
        2,
        5,
        6,
        5,
        4,
        5,
        8,
        3,
        3,
        16,
        1,
        6,
        16,
        4,
        5,
        6,
        2,
        1,
        8,
        8,
        6,
        6,
        9,
        11,
        8,
        8,
        6,
        5,
        4,
        8,
        2,
        5,
        1,
        6,
        5,
        4,
        3,
        6,
        6,
        6,
        4,
        2,
        2,
        7,
        4,
        7,
        10,
        12,
        9,
        10,
        11,
        12,
        9,
        10,
        11,
        12,
        9,
        10,
        11,
        12,
        9,
        10,
        11,
        12,
        9,
        10,
        11,
        12,
        9,
        10,
        11
      ]
    },
    {
      "id": 2,
      "name": "Escenario",
      "type": "objectgroup",
      "draworder": "topdown",
      "x": 0,
      "y": 0,
      "opacity": 1,
      "visible": true,
      "objects": [
        {
          "id": 1,
          "name": "shared-door",
          "gid": 121,
          "x": 344,
          "y": 109,
          "width": 80,
          "height": 112,
          "rotation": 0,
          "visible": true,
          "properties": [
            {
              "name": "asset_id",
              "type": "string",
              "value": "shared-door"
            }
          ]
        },
        {
          "id": 2,
          "name": "shared-planter",
          "gid": 120,
          "x": 48,
          "y": 126,
          "width": 48,
          "height": 64,
          "rotation": 0,
          "visible": true,
          "properties": [
            {
              "name": "asset_id",
              "type": "string",
              "value": "shared-planter"
            }
          ]
        },
        {
          "id": 4,
          "name": "shared-planter",
          "gid": 120,
          "x": 672,
          "y": 126,
          "width": 48,
          "height": 64,
          "rotation": 0,
          "visible": true,
          "properties": [
            {
              "name": "asset_id",
              "type": "string",
              "value": "shared-planter"
            }
          ]
        },
        {
          "id": 6,
          "name": "lab-reactor",
          "gid": 100,
          "x": 344,
          "y": 252,
          "width": 80,
          "height": 112,
          "rotation": 0,
          "visible": true,
          "properties": [
            {
              "name": "asset_id",
              "type": "string",
              "value": "lab-reactor"
            }
          ]
        },
        {
          "id": 9,
          "name": "lab-console",
          "gid": 101,
          "x": 336,
          "y": 435,
          "width": 96,
          "height": 72,
          "rotation": 0,
          "visible": true,
          "properties": [
            {
              "name": "asset_id",
              "type": "string",
              "value": "lab-console"
            }
          ]
        },
        {
          "id": 12,
          "name": "lab-workbench",
          "gid": 102,
          "x": 89,
          "y": 235,
          "width": 112,
          "height": 72,
          "rotation": 0,
          "visible": true,
          "properties": [
            {
              "name": "asset_id",
              "type": "string",
              "value": "lab-workbench"
            }
          ]
        },
        {
          "id": 15,
          "name": "lab-workbench",
          "gid": 102,
          "x": 567,
          "y": 235,
          "width": 112,
          "height": 72,
          "rotation": 0,
          "visible": true,
          "properties": [
            {
              "name": "asset_id",
              "type": "string",
              "value": "lab-workbench"
            }
          ]
        },
        {
          "id": 17,
          "name": "lab-coil",
          "gid": 105,
          "x": 98,
          "y": 414,
          "width": 64,
          "height": 64,
          "rotation": 0,
          "visible": true,
          "properties": [
            {
              "name": "asset_id",
              "type": "string",
              "value": "lab-coil"
            }
          ]
        },
        {
          "id": 19,
          "name": "lab-coil",
          "gid": 105,
          "x": 610,
          "y": 414,
          "width": 64,
          "height": 64,
          "rotation": 0,
          "visible": true,
          "properties": [
            {
              "name": "asset_id",
              "type": "string",
              "value": "lab-coil"
            }
          ]
        },
        {
          "id": 21,
          "name": "lab-battery",
          "gid": 103,
          "x": 218,
          "y": 349,
          "width": 40,
          "height": 48,
          "rotation": 0,
          "visible": true,
          "properties": [
            {
              "name": "asset_id",
              "type": "string",
              "value": "lab-battery"
            }
          ]
        },
        {
          "id": 23,
          "name": "lab-battery",
          "gid": 103,
          "x": 503,
          "y": 349,
          "width": 40,
          "height": 48,
          "rotation": 0,
          "visible": true,
          "properties": [
            {
              "name": "asset_id",
              "type": "string",
              "value": "lab-battery"
            }
          ]
        },
        {
          "id": 25,
          "name": "lab-lamp",
          "gid": 104,
          "x": 58,
          "y": 334,
          "width": 48,
          "height": 80,
          "rotation": 0,
          "visible": true,
          "properties": [
            {
              "name": "asset_id",
              "type": "string",
              "value": "lab-lamp"
            }
          ]
        },
        {
          "id": 27,
          "name": "lab-lamp",
          "gid": 104,
          "x": 662,
          "y": 334,
          "width": 48,
          "height": 80,
          "rotation": 0,
          "visible": true,
          "properties": [
            {
              "name": "asset_id",
              "type": "string",
              "value": "lab-lamp"
            }
          ]
        },
        {
          "id": 29,
          "name": "shared-planter",
          "gid": 120,
          "x": 46,
          "y": 461,
          "width": 48,
          "height": 64,
          "rotation": 0,
          "visible": true,
          "properties": [
            {
              "name": "asset_id",
              "type": "string",
              "value": "shared-planter"
            }
          ]
        },
        {
          "id": 31,
          "name": "shared-planter",
          "gid": 120,
          "x": 674,
          "y": 461,
          "width": 48,
          "height": 64,
          "rotation": 0,
          "visible": true,
          "properties": [
            {
              "name": "asset_id",
              "type": "string",
              "value": "shared-planter"
            }
          ]
        }
      ]
    },
    {
      "id": 3,
      "name": "Interacciones",
      "type": "objectgroup",
      "draworder": "topdown",
      "x": 0,
      "y": 0,
      "opacity": 1,
      "visible": false,
      "objects": [
        {
          "id": 8,
          "name": "Núcleo de energía",
          "x": 362,
          "y": 174,
          "width": 44,
          "height": 44,
          "rotation": 0,
          "visible": true,
          "properties": [
            {
              "name": "action",
              "type": "string",
              "value": "circuit"
            },
            {
              "name": "text",
              "type": "string",
              "value": "Ajusta un circuito ideal y observa cómo cambia la corriente."
            },
            {
              "name": "asset_id",
              "type": "string",
              "value": "lab-reactor"
            }
          ]
        },
        {
          "id": 11,
          "name": "Osciloscopio",
          "x": 362,
          "y": 377,
          "width": 44,
          "height": 44,
          "rotation": 0,
          "visible": true,
          "properties": [
            {
              "name": "action",
              "type": "string",
              "value": "info"
            },
            {
              "name": "text",
              "type": "string",
              "value": "Los instrumentos permiten observar y medir. En esta demostración, la corriente se calcula con I = V / R."
            },
            {
              "name": "asset_id",
              "type": "string",
              "value": "lab-console"
            }
          ]
        },
        {
          "id": 14,
          "name": "Mesa de componentes",
          "x": 123,
          "y": 177,
          "width": 44,
          "height": 44,
          "rotation": 0,
          "visible": true,
          "properties": [
            {
              "name": "action",
              "type": "string",
              "value": "info"
            },
            {
              "name": "text",
              "type": "string",
              "value": "Una batería mantiene una diferencia de potencial. Una resistencia limita la corriente del circuito."
            },
            {
              "name": "asset_id",
              "type": "string",
              "value": "lab-workbench"
            }
          ]
        }
      ]
    },
    {
      "id": 4,
      "name": "Colisiones",
      "type": "objectgroup",
      "draworder": "topdown",
      "x": 0,
      "y": 0,
      "opacity": 1,
      "visible": false,
      "objects": [
        {
          "id": 3,
          "name": "shared-planter",
          "x": 56,
          "y": 106,
          "width": 32,
          "height": 16,
          "rotation": 0,
          "visible": true
        },
        {
          "id": 5,
          "name": "shared-planter",
          "x": 680,
          "y": 106,
          "width": 32,
          "height": 16,
          "rotation": 0,
          "visible": true
        },
        {
          "id": 7,
          "name": "lab-reactor",
          "x": 352,
          "y": 220,
          "width": 64,
          "height": 28,
          "rotation": 0,
          "visible": true
        },
        {
          "id": 10,
          "name": "lab-console",
          "x": 344,
          "y": 413,
          "width": 80,
          "height": 18,
          "rotation": 0,
          "visible": true
        },
        {
          "id": 13,
          "name": "lab-workbench",
          "x": 97,
          "y": 213,
          "width": 96,
          "height": 18,
          "rotation": 0,
          "visible": true
        },
        {
          "id": 16,
          "name": "lab-workbench",
          "x": 575,
          "y": 213,
          "width": 96,
          "height": 18,
          "rotation": 0,
          "visible": true
        },
        {
          "id": 18,
          "name": "lab-coil",
          "x": 106,
          "y": 394,
          "width": 48,
          "height": 16,
          "rotation": 0,
          "visible": true
        },
        {
          "id": 20,
          "name": "lab-coil",
          "x": 618,
          "y": 394,
          "width": 48,
          "height": 16,
          "rotation": 0,
          "visible": true
        },
        {
          "id": 22,
          "name": "lab-battery",
          "x": 226,
          "y": 333,
          "width": 24,
          "height": 12,
          "rotation": 0,
          "visible": true
        },
        {
          "id": 24,
          "name": "lab-battery",
          "x": 511,
          "y": 333,
          "width": 24,
          "height": 12,
          "rotation": 0,
          "visible": true
        },
        {
          "id": 26,
          "name": "lab-lamp",
          "x": 66,
          "y": 310,
          "width": 32,
          "height": 20,
          "rotation": 0,
          "visible": true
        },
        {
          "id": 28,
          "name": "lab-lamp",
          "x": 670,
          "y": 310,
          "width": 32,
          "height": 20,
          "rotation": 0,
          "visible": true
        },
        {
          "id": 30,
          "name": "shared-planter",
          "x": 54,
          "y": 441,
          "width": 32,
          "height": 16,
          "rotation": 0,
          "visible": true
        },
        {
          "id": 32,
          "name": "shared-planter",
          "x": 682,
          "y": 441,
          "width": 32,
          "height": 16,
          "rotation": 0,
          "visible": true
        }
      ]
    },
    {
      "id": 5,
      "name": "Inicio",
      "type": "objectgroup",
      "draworder": "topdown",
      "x": 0,
      "y": 0,
      "opacity": 1,
      "visible": false,
      "objects": [
        {
          "id": 33,
          "name": "Inicio",
          "x": 350,
          "y": 390,
          "point": true,
          "rotation": 0,
          "visible": true
        }
      ]
    }
  ],
  "tilesets": [
    {
      "firstgid": 1,
      "source": "../tilesets/laboratory.tsj"
    },
    {
      "firstgid": 100,
      "source": "../tilesets/objects.tsj"
    }
  ],
  "properties": [
    {
      "name": "world",
      "type": "string",
      "value": "laboratory"
    },
    {
      "name": "subject",
      "type": "string",
      "value": "Física"
    },
    {
      "name": "objective",
      "type": "string",
      "value": "Relacionar voltaje, resistencia y corriente en un circuito de corriente continua ideal."
    },
    {
      "name": "mechanic",
      "type": "string",
      "value": "circuit"
    }
  ]
}
