<?xml version="1.0" encoding="UTF-8"?>
<map version="1.11" tiledversion="1.12.2" orientation="orthogonal" renderorder="right-down" width="24" height="16" tilewidth="32" tileheight="32" infinite="0" backgroundcolor="#142630" nextlayerid="6" nextobjectid="31">
 <properties>
  <property name="mechanic" value="balance"/>
  <property name="objective" value="Resolver una ecuación lineal conservando la igualdad en ambos miembros."/>
  <property name="subject" value="Matemáticas"/>
  <property name="world" value="mathematics"/>
 </properties>
 <tileset firstgid="1" source="../tilesets/mathematics.tsj"/>
 <tileset firstgid="17" source="../tilesets/objects.tsj"/>
 <layer id="1" name="Suelo" width="24" height="16">
  <data encoding="csv">
9,10,11,12,9,10,11,12,9,10,11,12,9,10,11,12,9,10,11,12,9,10,11,12,
10,11,12,9,10,11,12,9,10,11,12,9,10,11,12,9,10,11,12,9,10,11,12,9,
11,7,3,2,1,3,3,6,4,2,2,8,7,5,5,4,5,5,6,7,2,7,1,10,
12,7,2,3,8,5,6,3,1,1,16,5,3,16,1,5,8,6,6,2,6,2,2,11,
9,6,6,2,7,3,5,1,6,5,16,5,7,16,6,1,5,7,5,4,8,4,4,12,
10,5,6,3,3,3,2,1,7,8,16,7,5,16,2,4,6,4,2,5,5,4,8,9,
11,5,3,5,5,4,2,8,1,6,16,5,5,16,8,3,3,7,4,2,4,2,3,10,
12,2,3,5,2,6,4,6,5,2,16,7,3,16,7,6,1,1,8,7,7,2,5,11,
9,5,4,8,5,2,8,4,1,6,16,6,1,16,5,6,8,4,4,7,2,5,4,12,
10,2,7,4,1,5,5,2,1,4,16,6,3,16,2,8,3,3,7,8,1,8,8,9,
11,6,4,7,3,5,8,8,6,1,16,6,6,16,7,5,3,8,1,2,5,1,5,10,
12,6,2,1,7,1,1,5,1,8,16,2,7,16,2,2,7,8,8,2,6,7,1,11,
9,3,6,1,1,8,6,1,1,8,16,4,5,16,2,6,1,3,5,6,2,5,7,12,
10,6,6,6,7,3,2,5,2,4,16,8,1,16,3,3,8,4,8,6,3,1,1,9,
11,4,3,7,2,5,3,2,2,4,5,5,2,3,2,8,7,7,7,3,7,4,1,10,
12,9,10,11,12,9,10,11,12,9,10,11,12,9,10,11,12,9,10,11,12,9,10,11
</data>
 </layer>
 <objectgroup id="2" name="Escenario">
  <object id="1" name="shared-door" gid="38" x="344" y="109" width="80" height="112">
   <properties>
    <property name="asset_id" value="shared-door"/>
   </properties>
  </object>
  <object id="2" name="shared-planter" gid="37" x="48" y="126" width="48" height="64">
   <properties>
    <property name="asset_id" value="shared-planter"/>
   </properties>
  </object>
  <object id="4" name="shared-planter" gid="37" x="672" y="126" width="48" height="64">
   <properties>
    <property name="asset_id" value="shared-planter"/>
   </properties>
  </object>
  <object id="6" name="math-board" gid="24" x="320" y="165" width="128" height="80">
   <properties>
    <property name="asset_id" value="math-board"/>
   </properties>
  </object>
  <object id="9" name="math-library" gid="25" x="84" y="194" width="96" height="112">
   <properties>
    <property name="asset_id" value="math-library"/>
   </properties>
  </object>
  <object id="11" name="math-library" gid="25" x="590" y="194" width="96" height="112">
   <properties>
    <property name="asset_id" value="math-library"/>
   </properties>
  </object>
  <object id="13" name="math-balance" gid="23" x="328" y="322" width="112" height="96">
   <properties>
    <property name="asset_id" value="math-balance"/>
   </properties>
  </object>
  <object id="16" name="math-table" gid="26" x="97" y="351" width="112" height="80">
   <properties>
    <property name="asset_id" value="math-table"/>
   </properties>
  </object>
  <object id="19" name="math-orrery" gid="27" x="580" y="358" width="80" height="104">
   <properties>
    <property name="asset_id" value="math-orrery"/>
   </properties>
  </object>
  <object id="22" name="math-table" gid="26" x="214" y="459" width="112" height="80">
   <properties>
    <property name="asset_id" value="math-table"/>
   </properties>
  </object>
  <object id="24" name="math-table" gid="26" x="458" y="459" width="112" height="80">
   <properties>
    <property name="asset_id" value="math-table"/>
   </properties>
  </object>
  <object id="26" name="math-crate" gid="28" x="60" y="452" width="48" height="48">
   <properties>
    <property name="asset_id" value="math-crate"/>
   </properties>
  </object>
  <object id="28" name="math-crate" gid="28" x="656" y="452" width="48" height="48">
   <properties>
    <property name="asset_id" value="math-crate"/>
   </properties>
  </object>
 </objectgroup>
 <objectgroup id="3" name="Interacciones" visible="0">
  <object id="8" name="Cuaderno de ideas" x="362" y="103" width="44" height="44">
   <properties>
    <property name="action" value="info"/>
    <property name="asset_id" value="math-board"/>
    <property name="text" value="La igualdad se conserva al realizar la misma operación en ambos miembros. La balanza representa esa relación."/>
   </properties>
  </object>
  <object id="15" name="Balanza de ecuaciones" x="362" y="252" width="44" height="44">
   <properties>
    <property name="action" value="balance"/>
    <property name="asset_id" value="math-balance"/>
    <property name="text" value="Descubre el valor de x conservando el equilibrio."/>
   </properties>
  </object>
  <object id="18" name="Mesa de geometría" x="131" y="289" width="44" height="44">
   <properties>
    <property name="action" value="info"/>
    <property name="asset_id" value="math-table"/>
    <property name="text" value="Las representaciones visuales ayudan a relacionar cantidades, áreas y proporciones."/>
   </properties>
  </object>
  <object id="21" name="Modelo orbital" x="598" y="284" width="44" height="44">
   <properties>
    <property name="action" value="info"/>
    <property name="asset_id" value="math-orrery"/>
    <property name="text" value="Los modelos matemáticos representan relaciones. Sus simplificaciones deben explicarse."/>
   </properties>
  </object>
 </objectgroup>
 <objectgroup id="4" name="Colisiones" visible="0">
  <object id="3" name="shared-planter" x="56" y="106" width="32" height="16"/>
  <object id="5" name="shared-planter" x="680" y="106" width="32" height="16"/>
  <object id="7" name="math-board" x="328" y="141" width="112" height="20"/>
  <object id="10" name="math-library" x="92" y="162" width="80" height="28"/>
  <object id="12" name="math-library" x="598" y="162" width="80" height="28"/>
  <object id="14" name="math-balance" x="336" y="294" width="96" height="24"/>
  <object id="17" name="math-table" x="105" y="327" width="96" height="20"/>
  <object id="20" name="math-orrery" x="588" y="328" width="64" height="26"/>
  <object id="23" name="math-table" x="222" y="435" width="96" height="20"/>
  <object id="25" name="math-table" x="466" y="435" width="96" height="20"/>
  <object id="27" name="math-crate" x="68" y="436" width="32" height="12"/>
  <object id="29" name="math-crate" x="664" y="436" width="32" height="12"/>
 </objectgroup>
 <objectgroup id="5" name="Inicio" visible="0">
  <object id="30" name="Inicio" x="350" y="390">
   <point/>
  </object>
 </objectgroup>
</map>
