<?xml version="1.0" encoding="UTF-8"?>
<map version="1.10" tiledversion="1.12.2" orientation="orthogonal" renderorder="right-down" width="24" height="16" tilewidth="32" tileheight="32" infinite="0" nextlayerid="6" nextobjectid="25">
 <tileset firstgid="1" source="../tilesets/technology.tsj"/>
 <tileset firstgid="17" source="../tilesets/technology-objects.tsj"/>
 <layer id="1" name="Suelo" width="24" height="16">
  <data encoding="csv">
9,10,11,12,9,10,11,12,9,10,11,12,9,10,11,12,9,10,11,12,9,10,11,12,
10,11,12,9,10,11,12,9,10,11,12,9,10,11,12,9,10,11,12,9,10,11,12,9,
11,6,1,4,7,2,5,8,3,6,1,13,13,2,5,8,3,6,1,4,7,2,5,10,
12,3,6,1,4,7,2,5,8,3,6,13,13,7,2,5,8,3,6,1,4,7,2,11,
9,8,3,6,1,4,7,2,5,8,3,13,13,4,7,2,5,8,3,6,1,4,7,12,
10,5,8,3,6,1,4,7,2,5,8,13,13,1,4,7,2,5,8,3,6,1,4,9,
11,2,5,8,3,6,1,4,7,2,5,13,13,6,1,4,7,2,5,8,3,6,1,10,
12,7,2,5,8,3,6,1,4,7,2,13,13,3,6,1,4,7,2,5,8,3,6,11,
9,4,7,2,5,8,3,6,1,4,7,13,13,8,3,6,1,4,7,2,5,8,3,12,
10,1,4,7,2,5,8,3,6,1,4,13,13,5,8,3,6,1,4,7,2,5,8,9,
11,6,1,4,7,2,5,8,3,6,1,13,13,2,5,8,3,6,1,4,7,2,5,10,
12,3,6,1,4,7,2,5,8,3,6,13,13,7,2,5,8,3,6,1,4,7,2,11,
9,8,3,6,1,4,7,2,5,8,3,13,13,4,7,2,5,8,3,6,1,4,7,12,
10,5,8,3,6,1,4,7,2,5,8,13,13,1,4,7,2,5,8,3,6,1,4,9,
11,2,5,8,3,6,1,4,7,2,5,13,13,6,1,4,7,2,5,8,3,6,1,10,
12,9,10,11,12,9,10,11,12,9,10,11,12,9,10,11,12,9,10,11,12,9,10,11
</data>
 </layer>
 <objectgroup id="2" name="Escenario">
  <object id="1" name="tech-server" gid="17" x="80" y="205" width="64" height="96">
   <properties>
    <property name="asset_id" value="tech-server"/>
   </properties>
  </object>
  <object id="3" name="tech-server" gid="17" x="620" y="205" width="64" height="96">
   <properties>
    <property name="asset_id" value="tech-server"/>
   </properties>
  </object>
  <object id="5" name="tech-server" gid="17" x="80" y="400" width="64" height="96">
   <properties>
    <property name="asset_id" value="tech-server"/>
   </properties>
  </object>
  <object id="7" name="tech-server" gid="17" x="620" y="400" width="64" height="96">
   <properties>
    <property name="asset_id" value="tech-server"/>
   </properties>
  </object>
  <object id="9" name="tech-terminal" gid="18" x="260" y="218" width="48" height="64">
   <properties>
    <property name="asset_id" value="tech-terminal"/>
   </properties>
  </object>
  <object id="12" name="tech-terminal" gid="18" x="460" y="218" width="48" height="64">
   <properties>
    <property name="asset_id" value="tech-terminal"/>
   </properties>
  </object>
  <object id="15" name="tech-terminal" gid="18" x="260" y="395" width="48" height="64">
   <properties>
    <property name="asset_id" value="tech-terminal"/>
   </properties>
  </object>
  <object id="18" name="tech-terminal" gid="18" x="460" y="395" width="48" height="64">
   <properties>
    <property name="asset_id" value="tech-terminal"/>
   </properties>
  </object>
  <object id="21" name="tech-beacon" gid="19" x="370" y="145" width="32" height="48">
   <properties>
    <property name="asset_id" value="tech-beacon"/>
   </properties>
  </object>
 </objectgroup>
 <objectgroup id="3" name="Interacciones" visible="0">
  <object id="11" name="Estación de conexión" x="260" y="178" width="48" height="40">
   <properties>
    <property name="action" value="mission"/>
    <property name="asset_id" value="tech-terminal"/>
   </properties>
  </object>
  <object id="14" name="Estación de conexión" x="460" y="178" width="48" height="40">
   <properties>
    <property name="action" value="mission"/>
    <property name="asset_id" value="tech-terminal"/>
   </properties>
  </object>
  <object id="17" name="Estación de conexión" x="260" y="355" width="48" height="40">
   <properties>
    <property name="action" value="mission"/>
    <property name="asset_id" value="tech-terminal"/>
   </properties>
  </object>
  <object id="20" name="Estación de conexión" x="460" y="355" width="48" height="40">
   <properties>
    <property name="action" value="mission"/>
    <property name="asset_id" value="tech-terminal"/>
   </properties>
  </object>
  <object id="23" name="Estación de conexión" x="370" y="105" width="32" height="40">
   <properties>
    <property name="action" value="mission"/>
    <property name="asset_id" value="tech-beacon"/>
   </properties>
  </object>
 </objectgroup>
 <objectgroup id="4" name="Colisiones" visible="0">
  <object id="2" name="tech-server" x="84" y="189" width="56" height="16"/>
  <object id="4" name="tech-server" x="624" y="189" width="56" height="16"/>
  <object id="6" name="tech-server" x="84" y="384" width="56" height="16"/>
  <object id="8" name="tech-server" x="624" y="384" width="56" height="16"/>
  <object id="10" name="tech-terminal" x="264" y="202" width="40" height="16"/>
  <object id="13" name="tech-terminal" x="464" y="202" width="40" height="16"/>
  <object id="16" name="tech-terminal" x="264" y="379" width="40" height="16"/>
  <object id="19" name="tech-terminal" x="464" y="379" width="40" height="16"/>
  <object id="22" name="tech-beacon" x="374" y="129" width="24" height="16"/>
 </objectgroup>
 <objectgroup id="5" name="Inicio" visible="0">
  <object id="24" name="Inicio" x="384" y="440">
   <point/>
  </object>
 </objectgroup>
</map>
